X:2833
L:1/8
M:4/4
K:G
 dc |:"G" BG AF DG G2 | (3(Bcd) ef ge dc |"G" BG G2 DG G2 |"Em" Be dB"D" A2 dc |"G" BG AF DG G2 | 
 Bd ef g3 a |"Em" bg af gf ed |"C" (3(efg) dB G2 Bd ::"Em" e2 ef ed BA | (3(Bcd) ef ge dc | 
"G" BG G2 DG G2 |"Em" Be dB A2 Bd |"Em" ed ef ed BA |"G" (3(Bcd) ef g3 a |"Em" bg af gf ed | 
"C" (3(efg) dB"G" G2 Bd :|

